icons/Twitter.svg

<svg width="24" height="24" viewBox="0 0 24 24" fill="none" xmlns="http://www.w3.org/2000/svg">
<rect opacity="0.01" width="24" height="24" fill="white"/>
<path fill-rule="evenodd" clip-rule="evenodd" d="M21 6.75424C20.5424 7.4661 19.9322 8.10169 19.1695 8.66102V9.11864C19.1695 11.7881 18.2098 14.2097 16.2903 16.3835C14.3708 18.5572 11.8221 19.6441 8.64407 19.6441C6.61016 19.6441 4.72882 19.0848 3 17.9661C3.40678 18.0169 3.69915 18.0424 3.87712 18.0424C5.58052 18.0424 7.10593 17.5085 8.45339 16.4407C7.66525 16.4153 6.95339 16.1674 6.3178 15.697C5.6822 15.2267 5.25 14.6229 5.02119 13.8856C5.32627 13.9364 5.55508 13.9619 5.70763 13.9619C5.96187 13.9619 6.29237 13.911 6.69915 13.8093C5.86016 13.6314 5.15466 13.2055 4.58263 12.5318C4.01059 11.858 3.72458 11.0763 3.72458 10.1864V10.1483C4.2839 10.4534 4.84322 10.6059 5.40254 10.6059C4.30932 9.89406 3.76271 8.86441 3.76271 7.51695C3.76271 6.88135 3.92796 6.27119 4.25847 5.68644C6.21611 8.10171 8.74575 9.38559 11.8475 9.53814C11.7966 9.36017 11.7712 9.08051 11.7712 8.69915C11.7712 7.65678 12.1271 6.77966 12.839 6.0678C13.5508 5.35593 14.428 5 15.4703 5C16.5127 5 17.4025 5.39406 18.1398 6.1822C18.9025 6.05508 19.6907 5.75 20.5042 5.26695C20.25 6.15678 19.7034 6.84322 18.8644 7.32627C19.6525 7.25 20.3644 7.05932 21 6.75424Z" fill="#ffffff"/>
</svg>

<svg width="24" height="24" fill="none" xmlns="http://www.w3.org/2000/svg"><path opacity=".01" fill="#fff" d="M0 0h24v24H0z"/><path fill-rule="evenodd" clip-rule="evenodd" d="M21 6.754c-.458.712-1.068 1.348-1.83 1.907v.458c0 2.67-.96 5.09-2.88 7.265-1.92 2.173-4.468 3.26-7.646 3.26-2.034 0-3.915-.56-5.644-1.678.407.05.7.076.877.076 1.704 0 3.229-.534 4.576-1.601a3.712 3.712 0 01-2.135-.744 3.493 3.493 0 01-1.297-1.811c.305.05.534.076.687.076.254 0 .584-.051.991-.153a3.727 3.727 0 01-2.116-1.277 3.515 3.515 0 01-.858-2.346v-.038c.559.305 1.118.458 1.678.458-1.094-.712-1.64-1.742-1.64-3.09 0-.635.165-1.245.495-1.83 1.958 2.416 4.488 3.7 7.59 3.852-.051-.178-.077-.457-.077-.839 0-1.042.356-1.92 1.068-2.631C13.551 5.356 14.428 5 15.47 5c1.043 0 1.932.394 2.67 1.182.762-.127 1.55-.432 2.364-.915-.254.89-.8 1.576-1.64 2.06A6.299 6.299 0 0021 6.753z" fill="#fff"/></svg>
